build/Karasa-Jaga/scalable/places/group-files.svg

<svg enable-background="new 0 0 22 22" height="22" viewBox="0 0 22 22" width="22" xmlns="http://www.w3.org/2000/svg"><path d="m5 2c-.55 0-1 .45-1 1v16c0 .55.45 1 1 1h.59375 6.40625 1 .9375.03125l4.03125-4v-.09375-.90625-1-4.03125-6.96875c0-.55-.449-1-1-1zm12.84375 13.15625-.03125.71875-3.1875.9375-.6875 2.84375-.5625.03125.40625-3.0625.6875-.53125z" fill="#bebebe"/></svg>

<?xml version="1.0" encoding="UTF-8" standalone="no"?>
<!-- Generator: Adobe Illustrator 14.0.0, SVG Export Plug-In . SVG Version: 6.00 Build 43363)  -->

<svg
   xmlns:dc="http://purl.org/dc/elements/1.1/"
   xmlns:cc="http://creativecommons.org/ns#"
   xmlns:rdf="http://www.w3.org/1999/02/22-rdf-syntax-ns#"
   xmlns:svg="http://www.w3.org/2000/svg"
   xmlns="http://www.w3.org/2000/svg"
   xmlns:sodipodi="http://sodipodi.sourceforge.net/DTD/sodipodi-0.dtd"
   xmlns:inkscape="http://www.inkscape.org/namespaces/inkscape"
   id="Layer_1"
   enable-background="new 0 0 22 22"
   xml:space="preserve"
   height="22px"
   viewBox="0 0 22 22"
   width="22px"
   version="1.1"
   y="0px"
   x="0px"
   inkscape:version="0.48.3.1 r9886"
   sodipodi:docname="group-files.svg"><defs
   id="defs9">
	

		
	</defs><sodipodi:namedview
   pagecolor="#ffffff"
   bordercolor="#666666"
   borderopacity="1"
   objecttolerance="10"
   gridtolerance="10"
   guidetolerance="10"
   inkscape:pageopacity="1"
   inkscape:pageshadow="2"
   inkscape:window-width="1366"
   inkscape:window-height="714"
   id="namedview7"
   showgrid="false"
   inkscape:zoom="7.5853273"
   inkscape:cx="-12.093662"
   inkscape:cy="-11.838652"
   inkscape:window-x="0"
   inkscape:window-y="22"
   inkscape:window-maximized="1"
   inkscape:current-layer="Layer_1" /><metadata
   id="metadata3036"><rdf:RDF><cc:Work
       rdf:about=""><dc:format>image/svg+xml</dc:format><dc:type
         rdf:resource="http://purl.org/dc/dcmitype/StillImage" /></cc:Work></rdf:RDF></metadata>
<path
   style="fill:#ffffff;fill-opacity:1;stroke:none"
   d="M 5 2 C 4.45 2 4 2.45 4 3 L 4 19 C 4 19.55 4.45 20 5 20 L 5.59375 20 L 12 20 L 13 20 L 13.9375 20 L 13.96875 20 L 18 16 L 18 15.90625 L 18 15 L 18 14 L 18 9.96875 L 18 3 C 18 2.45 17.551 2 17 2 L 5 2 z M 17.84375 15.15625 L 17.8125 15.875 L 14.625 16.8125 L 13.9375 19.65625 L 13.375 19.6875 L 13.78125 16.625 L 14.46875 16.09375 L 17.84375 15.15625 z "
   id="rect2988" />
</svg>
